flaticon/file-type/bridge.svg

<svg xmlns="http://www.w3.org/2000/svg" width="32" height="32" viewBox="0 0 24 24">
    <path d="M 18.589844 0 L 5.410156 0 C 2.425781 0 0 2.425781 0 5.410156 L 0 18.589844 C 0 21.574219 2.425781 24 5.410156 24 L 18.589844 24 C 21.574219 24 24 21.574219 24 18.589844 L 24 5.410156 C 24 2.425781 21.574219 0 18.589844 0 Z M 23.109375 18.589844 C 23.109375 21.082031 21.082031 23.109375 18.589844 23.109375 L 5.410156 23.109375 C 2.917969 23.109375 0.890625 21.082031 0.890625 18.589844 L 0.890625 5.410156 C 0.890625 2.917969 2.917969 0.890625 5.410156 0.890625 L 18.589844 0.890625 C 21.082031 0.890625 23.109375 2.917969 23.109375 5.410156 Z M 23.109375 18.589844"/>
    <path d="M11.699219 10.878906L11.699219 10.863281C11.699219 10.851562 11.703125 10.839844 11.714844 10.828125 12.496094 10.292969 12.890625 9.5 12.890625 8.445312 12.890625 7.390625 12.59375 6.609375 12.007812 6.097656 11.421875 5.589844 10.644531 5.332031 9.671875 5.332031L5.832031 5.332031 5.832031 17.777344 9.867188 17.777344C11.417969 17.777344 12.480469 17.222656 13.050781 16.105469 13.367188 15.503906 13.527344 14.828125 13.527344 14.078125 13.527344 13.238281 13.355469 12.554688 13.003906 12.027344 12.65625 11.5 12.21875 11.117188 11.699219 10.878906zM7.109375 6.578125L9.367188 6.578125C10.777344 6.578125 11.484375 7.210938 11.484375 8.480469 11.484375 9.785156 10.792969 10.4375 9.40625 10.4375L7.109375 10.4375zM11.441406 16.035156C10.996094 16.402344 10.375 16.585938 9.582031 16.585938L7.109375 16.585938 7.109375 11.679688 9.832031 11.679688C10.460938 11.679688 10.996094 11.875 11.441406 12.265625 11.882812 12.65625 12.105469 13.292969 12.105469 14.167969 12.105469 15.046875 11.882812 15.667969 11.441406 16.035156zM16.480469 9.332031L16.480469 8.871094 15.234375 8.871094 15.234375 17.777344 16.515625 17.777344 16.515625 11.183594C16.515625 10.792969 16.691406 10.480469 17.039062 10.25 17.390625 10.015625 17.785156 9.902344 18.230469 9.902344 18.675781 9.902344 19.105469 9.96875 19.519531 10.097656L19.839844 8.890625C19.355469 8.792969 18.910156 8.746094 18.507812 8.746094 17.6875 8.746094 17.011719 8.941406 16.480469 9.332031zM16.480469 9.332031"/>
</svg>

<svg xmlns="http://www.w3.org/2000/svg" width="32" height="32" viewBox="0 0 24 24">
    <path d="M18.59 0H5.41A5.415 5.415 0 0 0 0 5.41v13.18A5.415 5.415 0 0 0 5.41 24h13.18A5.415 5.415 0 0 0 24 18.59V5.41A5.415 5.415 0 0 0 18.59 0zm4.52 18.59a4.525 4.525 0 0 1-4.52 4.52H5.41a4.525 4.525 0 0 1-4.52-4.52V5.41A4.525 4.525 0 0 1 5.41.89h13.18a4.525 4.525 0 0 1 4.52 4.52zm0 0"/>
    <path d="M11.7 10.879v-.016c0-.011.003-.023.015-.035.781-.535 1.176-1.328 1.176-2.383 0-1.054-.297-1.836-.883-2.347-.586-.508-1.363-.766-2.336-.766h-3.84v12.445h4.035c1.551 0 2.613-.554 3.184-1.672.316-.601.476-1.277.476-2.027 0-.84-.172-1.523-.523-2.05-.348-.528-.785-.91-1.305-1.15zm-4.59-4.3h2.257c1.41 0 2.117.632 2.117 1.901 0 1.305-.691 1.957-2.078 1.957H7.11zm4.331 9.456c-.445.367-1.066.55-1.859.55H7.109V11.68h2.723c.629 0 1.164.195 1.61.586.44.39.663 1.027.663 1.902 0 .879-.222 1.5-.664 1.867zm0 0M16.48 9.332v-.46h-1.246v8.905h1.282v-6.593c0-.391.175-.704.523-.934a2.09 2.09 0 0 1 1.191-.348c.446 0 .875.067 1.29.196l.32-1.207a6.78 6.78 0 0 0-1.332-.145c-.82 0-1.496.195-2.028.586zm0 0"/>
</svg>
